svg/u1f61f.svg

<svg viewBox="0 0 128 128" xmlns="http://www.w3.org/2000/svg">
  <g id="gold">
    <radialGradient id="face_1_" cx="63.6" cy="1400.9" gradientTransform="matrix(1 0 0 1 0 -1338)" gradientUnits="userSpaceOnUse" r="56.9597">
      <stop offset="0.5" stop-color="#FDE030"/>
      <stop offset="0.92" stop-color="#F7C02B"/>
      <stop offset="1" stop-color="#F4A223"/>
    </radialGradient>
    <path id="face" d="M63.6,118.8c-27.9,0-58-17.5-58-55.9S35.7,7,63.6,7c15.5,0,29.8,5.1,40.4,14.4 c11.5,10.2,17.6,24.6,17.6,41.5s-6.1,31.2-17.6,41.4C93.4,113.6,79,118.8,63.6,118.8z" fill="url(#face_1_)"/>
    <path d="M111.49,29.67c5.33,8.6,8.11,18.84,8.11,30.23c0,16.9-6.1,31.2-17.6,41.4 c-10.6,9.3-25,14.5-40.4,14.5c-18.06,0-37-7.35-48.18-22.94c10.76,17.66,31,25.94,50.18,25.94c15.4,0,29.8-5.2,40.4-14.5 c11.5-10.2,17.6-24.5,17.6-41.4C121.6,50.16,118.13,38.84,111.49,29.67z" fill="#EB8F00"/>
  </g>
  <g id="facial_expressions">
    <g id="worried-face">
      <path id="mouth" d="M63.9,82c-10.5,0-18,6.3-20.2,9.8c-0.84,1.12-1.03,2.6-0.5,3.9 c0.42,0.83,1.28,1.33,2.2,1.3c0.34-0.02,0.68-0.09,1-0.2c5.3-1.7,9.9-4.1,17.5-4.1s12.2,2.5,17.5,4.1c0.32,0.11,0.66,0.18,1,0.2 c0.92,0.03,1.78-0.47,2.2-1.3c0.58-1.29,0.38-2.8-0.5-3.9C81.9,88.3,74.4,82,63.9,82z" fill="#422B0D"/>
    </g>
    <path d="M44,49.94L44,49.94c-4.19,0-8,3.54-8,9.42s3.81,9.41,8,9.41l0,0c4.2,0,8-3.54,8-9.41 S48.24,49.94,44,49.94z" fill="#422B0D"/>
    <g id="peepers">
      <path d="M43.65,53.87L43.65,53.87c-1.42-0.68-3.13-0.08-3.82,1.34c-0.53,1.11-0.29,2.44,0.6,3.3l0,0 c1.42,0.68,3.13,0.08,3.82-1.34C44.78,56.06,44.54,54.73,43.65,53.87z" fill="#896024"/>
    </g>
    <path d="M82.4,49.94L82.4,49.94c-4.19,0-8,3.54-8,9.42s3.81,9.41,8,9.41l0,0c4.19,0,8-3.54,8-9.41 S86.59,49.94,82.4,49.94z" fill="#422B0D"/>
    <g id="peepers-2">
      <path d="M82,53.87L82,53.87c-1.42-0.68-3.13-0.08-3.82,1.34c-0.53,1.11-0.29,2.44,0.6,3.3l0,0 c1.42,0.68,3.13,0.08,3.82-1.34C83.13,56.06,82.89,54.73,82,53.87z" fill="#896024"/>
    </g>
    <g id="eyebrows">
      <path d="M27.4,34.8c-2.2,0.4-2.3,3.6,0.1,3.7c5.3,0.07,10.42-1.9,14.3-5.5c1.48-1.28,2.73-2.8,3.7-4.5 c0.58-0.83,0.38-1.97-0.45-2.55c-0.83-0.58-1.97-0.38-2.55,0.45l-0.1,0.1C38.48,30.88,33.19,33.81,27.4,34.8z" fill="#422B0D"/>
      <path d="M84.5,26.4c-0.58-0.83-1.72-1.03-2.55-0.45c-0.83,0.58-1.03,1.72-0.45,2.55 c0.97,1.7,2.22,3.22,3.7,4.5c3.9,3.57,9.01,5.54,14.3,5.5c2.5-0.1,2.3-3.3,0.1-3.7C93.74,33.84,88.41,30.87,84.5,26.4L84.5,26.4" fill="#422B0D"/>
    </g>
  </g>
</svg>

<svg viewBox="0 0 128 128" xmlns="http://www.w3.org/2000/svg">
  <defs>
    <radialGradient id="face_1_" cx="63.6" cy="62.9" gradientUnits="userSpaceOnUse" r="56.9597">
      <stop offset="0.5" stop-color="#FDE030"/>
      <stop offset="0.92" stop-color="#F7C02B"/>
      <stop offset="1" stop-color="#F4A223"/>
    </radialGradient>
  </defs>
  <path id="face" d="M63.6,118.8 C35.7,118.8 5.6,101.3 5.6,62.9 C5.6,24.5 35.7,7 63.6,7 C79.1,7 93.4,12.1 104,21.4 C115.5,31.6 121.6,46 121.6,62.9 C121.6,79.8 115.5,94.1 104,104.3 C93.4,113.6 79,118.8 63.6,118.8 Z" fill="url(#face_1_)"/>
  <path d="M111.49,29.67 C116.82,38.27 119.6,48.51 119.6,59.9 C119.6,76.8 113.5,91.1 102,101.3 C91.4,110.6 77,115.8 61.6,115.8 C43.54,115.8 24.6,108.45 13.42,92.86 C24.18,110.52 44.42,118.8 63.6,118.8 C79,118.8 93.4,113.6 104,104.3 C115.5,94.1 121.6,79.8 121.6,62.9 C121.6,50.16 118.13,38.84 111.49,29.67 Z" fill="#EB8F00"/>
  <path id="mouth" d="M63.9,82 C53.4,82 45.9,88.3 43.7,91.8 C42.86,92.92 42.67,94.4 43.2,95.7 C43.62,96.53 44.48,97.03 45.4,97 C45.74,96.98 46.08,96.91 46.4,96.8 C51.7,95.1 56.3,92.7 63.9,92.7 C71.5,92.7 76.1,95.2 81.4,96.8 C81.72,96.91 82.06,96.98 82.4,97 C83.32,97.03 84.18,96.53 84.6,95.7 C85.18,94.41 84.98,92.9 84.1,91.8 C81.9,88.3 74.4,82 63.9,82 Z" fill="#422B0D"/>
  <path d="M44,49.94 L44,49.94 C39.81,49.94 36,53.48 36,59.36 C36,65.24 39.81,68.77 44,68.77 L44,68.77 C48.2,68.77 52,65.23 52,59.36 C52,53.49 48.24,49.94 44,49.94 Z" fill="#422B0D"/>
  <path d="M43.65,53.87 L43.65,53.87 C42.23,53.19 40.52,53.79 39.83,55.21 C39.3,56.32 39.54,57.65 40.43,58.51 L40.43,58.51 C41.85,59.19 43.56,58.59 44.25,57.17 C44.78,56.06 44.54,54.73 43.65,53.87 Z" fill="#896024"/>
  <path d="M82.4,49.94 L82.4,49.94 C78.21,49.94 74.4,53.48 74.4,59.36 C74.4,65.24 78.21,68.77 82.4,68.77 L82.4,68.77 C86.59,68.77 90.4,65.23 90.4,59.36 C90.4,53.49 86.59,49.94 82.4,49.94 Z" fill="#422B0D"/>
  <path d="M82,53.87 L82,53.87 C80.58,53.19 78.87,53.79 78.18,55.21 C77.65,56.32 77.89,57.65 78.78,58.51 L78.78,58.51 C80.2,59.19 81.91,58.59 82.6,57.17 C83.13,56.06 82.89,54.73 82,53.87 Z" fill="#896024"/>
  <path d="M27.4,34.8 C25.2,35.2 25.1,38.4 27.5,38.5 C32.8,38.57 37.92,36.6 41.8,33 C43.28,31.72 44.53,30.2 45.5,28.5 C46.08,27.67 45.88,26.53 45.05,25.95 C44.22,25.37 43.08,25.57 42.5,26.4 L42.4,26.5 C38.48,30.88 33.19,33.81 27.4,34.8 Z" fill="#422B0D"/>
  <path d="M84.5,26.4 C83.92,25.57 82.78,25.37 81.95,25.95 C81.12,26.53 80.92,27.67 81.5,28.5 C82.47,30.2 83.72,31.72 85.2,33 C89.1,36.57 94.21,38.54 99.5,38.5 C102,38.4 101.8,35.2 99.6,34.8 C93.74,33.84 88.41,30.87 84.5,26.4 L84.5,26.4" fill="#422B0D"/>
</svg>
